X:1 
T:A Hero Comes Home 
C:Beowulf Soundtrack/ Harp/modified by Achazia 
N: 
Q:1/4=130 
V:1 
M:4/4 
L:1/8 
K:F 
z8 |C2 _E2 G2 c2 |G2 _E2 C2 E2 |G2 c2 G2 _E2 |C2 _E2 G2 _A,2 |C2 _E2 B,2 D2 |F2 G,2 B,2 D2 |G,2 B,2 D2 _A,2 |C2 _E2 B,2 D2 |F2 C2 _E2 G2 |c2 G2 _E2 C2 |_E2 G2 c2 G2 |_E2 C2 E2 G2 |_A,2 C2 _E2 B,2 |D2 
F2 G,2 B,2 | 
D2 G,2 B,2 D2 |_A,2 C2 _E2 B,2 |D2 F2 C2 _E2 |G2 c2 G2 _E2 |C2 _E2 G2 c2 |G2 _E2 C2 E2 |G2 _A,2 C2 _E2 |B,2 D2 F2 G,2 |B,2 D2 G,2 B,2 |D2 _A,2 C2 _E2 |B,2 D2 F2 C2 |_E2 G2 c2 G2 |_E2 C2 E2 G2 |c2 G2 
_E2 C2 | 
_E2 G2 _A,2 C2 |_E2 B,2 D2 F2 |G,2 B,2 D2 G,2 |B,2 D2 _A,2 C2 |_E2 B,2 D2 F2 |C2 _E2 G2 c2 |G2 _E2 C2 E2 |G2 c2 G2 _E2 |C2 z6 |]
